X:170
T:RVW2/2/170 Merry Broom Fields
C:Mr. Kemp, Herongate, Essex, 26 October 1904
L:1/8
Q:1/4=100
M:4/4
I:linebreak $
K:G
"^(Editorial suggestion) " (Bc) |"^(a)" dddd d2 gf | edcB c3 c |$ e2"^(b)" dB c2 BG | A6 A2 | 
w: It's _|of a no- ble squi- �r that|liv- �d in the north he|court- ed a rich la- dy|gay and|
(de)dG (GF)ED |$ G2 BB c2 Bc | (dg)fg (dc)AF | G4 z2 ||$ Bc |"^(a) var." d2 dd d2 gf | 
w: as _ he was walk- * ing one|fine sum- mer morn o a|wa- * ger with her _ he did|lay.|||
edcB c3 c |$ e2"^(b) var." d2 c2 BG | A6 A2 | dedG GFED |$ G2 AB c2 Bc | dgfg dcAF | G4 z4 |] 
w: |||||||



